logo/nodeos.svg

<?xml version="1.0" encoding="UTF-8"?>
<svg width="256px" height="274px" viewBox="0 0 256 274" version="1.1" xmlns="http://www.w3.org/2000/svg" xmlns:xlink="http://www.w3.org/1999/xlink" preserveAspectRatio="xMidYMid">
		<g>
				<polygon fill="#0000AA" points="96.8648649 58.1528216 128 40.177009 159.135135 58.1528216 159.135135 102.093953 193.72973 122.067027 193.72973 38.1797477 128 0.230354607 62.2702703 38.1797477 62.2702703 122.067488 96.8648649 102.093953"></polygon>
				<polygon fill="#00AAAA" points="186.810811 126.06155 128 160.015914 69.1891892 126.06155 128 92.1071856"></polygon>
				<path d="M62.2701923,130.056586 L0.000105318379,166.008062 L0.000105318379,237.911517 L62.2701923,273.862229 L124.540532,237.911517 L124.540532,166.008062 L62.2701923,130.056586 Z M62.2701923,162.013672 L96.8648534,181.986604 L96.8648534,221.932961 L62.2701923,241.906153 L27.6757835,221.932961 L27.6757835,181.986604 L62.2701923,162.013672 Z" fill="#0000AA"></path>
				<polygon fill="#0000AA" points="193.72973 241.906162 159.135135 221.932858 159.135135 213.943813 131.459459 197.965261 131.459459 237.91164 193.72973 273.862342 256 237.91164 256 221.932858 172.972973 173.997204 193.72973 162.013175 228.324324 181.98671 228.324324 189.975755 256 205.954306 256 166.008159 193.72973 130.056072 131.459459 166.008159 131.459459 181.98671 214.486486 229.922364"></polygon>
		</g>
</svg>

<svg viewBox="0 0 256 274" xmlns="http://www.w3.org/2000/svg"><path fill="#00A" d="M96.86 58.15l31.13-17.98 31.13 17.97 0 43.94 34.59 19.97 0-83.89L127.98.21 62.25 38.15l0 83.88 34.59-19.98Z"/><path fill="#0AA" d="M186.81 126.06l-58.82 33.95 -58.82-33.96 58.81-33.96Z"/><g fill="#00A"><path d="M62.27 130.05L-.01 166v71.9l62.27 35.95 62.27-35.96v-71.91l-62.28-35.96Zm0 31.95l34.59 19.97v39.94l-34.6 19.97 -34.6-19.98v-39.95l34.59-19.98Z"/><path d="M193.72 241.9l-34.6-19.98 0-7.99 -27.68-15.98 0 39.94 62.27 35.95 62.27-35.96 0-15.98 -83.03-47.94 20.75-11.99 34.59 19.97 0 7.98 27.67 15.97 0-39.95 -62.28-35.96 -62.28 35.95 0 15.97 83.02 47.93Z"/></g></svg>
